images/search.svg

<svg width="16" height="17" viewBox="0 0 16 17" fill="none" xmlns="http://www.w3.org/2000/svg">
<path fill-rule="evenodd" clip-rule="evenodd" d="M2.66329 8.18794C2.66329 5.61061 4.75263 3.52128 7.32996 3.52128C9.90729 3.52128 11.9966 5.61061 11.9966 8.18794C11.9966 9.44522 11.4994 10.5864 10.6909 11.4255C10.6681 11.443 10.6461 11.4623 10.6252 11.4832C10.6043 11.5041 10.585 11.5261 10.5675 11.5489C9.72835 12.3574 8.58722 12.8546 7.32996 12.8546C4.75263 12.8546 2.66329 10.7653 2.66329 8.18794ZM11.0751 12.8759C10.0486 13.697 8.74662 14.1879 7.32996 14.1879C4.01625 14.1879 1.32996 11.5017 1.32996 8.18794C1.32996 4.87423 4.01625 2.18794 7.32996 2.18794C10.6437 2.18794 13.33 4.87423 13.33 8.18794C13.33 9.60463 12.839 10.9066 12.0179 11.9331L14.468 14.3832C14.7284 14.6436 14.7284 15.0657 14.468 15.326C14.2077 15.5864 13.7855 15.5864 13.5252 15.326L11.0751 12.8759Z" fill="#2D3440"/>
</svg>

<svg xmlns="http://www.w3.org/2000/svg" width="16" height="17" fill="none"><path fill="#2D3440" fill-rule="evenodd" d="M2.6633 8.188c0-2.5774 2.0893-4.6667 4.6667-4.6667 2.5773 0 4.6666 2.0893 4.6666 4.6666 0 1.2573-.4972 2.3985-1.3057 3.2376a.6699.6699 0 0 0-.1234.1234c-.8392.8085-1.9803 1.3057-3.2375 1.3057-2.5774 0-4.6667-2.0893-4.6667-4.6667Zm8.4118 4.6879a5.9747 5.9747 0 0 1-3.7451 1.312c-3.3137 0-6-2.6862-6-6 0-3.3137 2.6863-6 6-6s6 2.6863 6 6a5.9748 5.9748 0 0 1-1.3121 3.7452l2.4501 2.4501a.6666.6666 0 0 1 0 .9428.6666.6666 0 0 1-.9428 0l-2.4501-2.4501Z" clip-rule="evenodd"/></svg>
